templates/cards/logo.svg

<svg width="166" height="56" viewBox="0 0 166 56" fill="none" xmlns="http://www.w3.org/2000/svg">
<path fill-rule="evenodd" clip-rule="evenodd" d="M140.321 34.5076V20.1498H148.516V21.8695H142.2V26.1374H147.819V27.8156H142.2V32.7879H149.001V34.5076H140.321ZM129.472 32.5186C129.343 32.1872 129.172 31.7659 128.959 31.2548C128.745 30.7438 128.516 30.1913 128.271 29.5974C128.025 29.0034 127.764 28.3923 127.486 27.7638C127.209 27.1354 126.947 26.5414 126.702 25.982C126.456 25.4227 126.227 24.922 126.014 24.48C125.801 24.038 125.63 23.6996 125.5 23.4648C125.358 25.0946 125.242 26.8591 125.152 28.7583C125.061 30.6575 124.984 32.5739 124.919 34.5076H123.079C123.13 33.2645 123.189 32.011 123.253 30.7472C123.318 29.4834 123.392 28.2403 123.476 27.018C123.56 25.7956 123.65 24.6043 123.747 23.4441C123.844 22.2839 123.951 21.1858 124.067 20.1498H125.714C126.062 20.7576 126.437 21.4758 126.837 22.3045C127.238 23.1333 127.638 24 128.038 24.9047C128.439 25.8094 128.826 26.7141 129.201 27.6188C129.575 28.5235 129.918 29.3488 130.228 30.0946C130.538 29.3487 130.88 28.5235 131.254 27.6188C131.629 26.7141 132.016 25.8094 132.417 24.9047C132.817 24 133.218 23.1333 133.618 22.3045C134.018 21.4758 134.393 20.7576 134.742 20.1498H136.388C136.828 24.7769 137.157 29.5628 137.376 34.5076H135.536C135.471 32.5739 135.394 30.6575 135.303 28.7583C135.213 26.8591 135.097 25.0946 134.955 23.4648C134.826 23.6996 134.654 24.038 134.441 24.48C134.228 24.922 133.999 25.4227 133.754 25.982C133.508 26.5414 133.247 27.1354 132.969 27.7638C132.691 28.3923 132.43 29.0034 132.184 29.5974C131.939 30.1913 131.71 30.7438 131.497 31.2548C131.283 31.7659 131.112 32.1872 130.983 32.5186H129.472ZM117.809 29.183C117.396 27.9813 116.986 26.8177 116.579 25.6919C116.172 24.5663 115.749 23.4855 115.31 22.4496C114.858 23.4855 114.428 24.5663 114.022 25.6919C113.615 26.8177 113.211 27.9813 112.811 29.183H117.809ZM119.572 34.5076C119.353 33.886 119.146 33.2749 118.952 32.674C118.758 32.0732 118.558 31.462 118.352 30.8405H112.268L111.048 34.5076H109.091C109.608 32.9882 110.092 31.5829 110.544 30.2915C110.996 29 111.438 27.7742 111.871 26.6139C112.304 25.4537 112.733 24.3453 113.159 23.2887C113.586 22.232 114.031 21.1858 114.496 20.1498H116.22C116.685 21.1858 117.131 22.232 117.557 23.2887C117.983 24.3453 118.413 25.4537 118.846 26.6139C119.278 27.7742 119.721 29 120.173 30.2915C120.625 31.5829 121.109 32.9883 121.626 34.5076H119.572ZM101.593 21.7658C100.793 21.7658 100.179 21.7866 99.7529 21.828V27.2355H101.09C101.735 27.2355 102.317 27.201 102.833 27.1319C103.35 27.0628 103.786 26.9317 104.141 26.7383C104.496 26.5449 104.771 26.2721 104.964 25.9199C105.158 25.5677 105.255 25.1015 105.255 24.5214C105.255 23.9828 105.158 23.5338 104.964 23.1747C104.771 22.8156 104.509 22.5325 104.18 22.3253C103.85 22.1181 103.463 21.9731 103.017 21.8902C102.572 21.8073 102.097 21.7659 101.593 21.7659V21.7658ZM104.441 28.4993C104.648 28.7755 104.909 29.1381 105.226 29.587C105.542 30.0359 105.868 30.5331 106.204 31.0787C106.54 31.6243 106.873 32.1941 107.202 32.788C107.531 33.3819 107.812 33.9551 108.045 34.5076H105.991C105.733 33.9827 105.452 33.4509 105.148 32.9123C104.845 32.3736 104.538 31.8591 104.228 31.3688C103.918 30.8784 103.611 30.4192 103.308 29.991C103.004 29.5628 102.73 29.1899 102.485 28.8722C102.317 28.8861 102.146 28.893 101.971 28.893C101.797 28.893 101.619 28.893 101.438 28.893H99.7529V34.5076H97.8736V20.357C98.4032 20.2189 98.9941 20.1257 99.6463 20.0773C100.299 20.029 100.896 20.0049 101.438 20.0049C103.324 20.0049 104.761 20.3847 105.749 21.1443C106.737 21.904 107.231 23.0366 107.231 24.5421C107.231 25.4951 106.995 26.3101 106.524 26.9868C106.053 27.6637 105.358 28.1678 104.441 28.4993V28.4993ZM87.47 34.5076V20.1498H95.5682V21.8695H89.3492V26.1996H94.8707V27.8985H89.3492V34.5076H87.47ZM85.4939 32.7672V34.5076H77.4151V20.1498H79.2943V32.7672H85.4939ZM75.439 32.7672V34.5076H67.3602V20.1498H69.2394V32.7672H75.439ZM56.2978 34.5076V20.1498H64.4929V21.8695H58.1771V26.1374H63.7954V27.8156H58.1771V32.7879H64.9772V34.5076H56.2978ZM50.0596 34.8184C49.1167 34.8184 48.2578 34.6526 47.4829 34.3211C46.7079 33.9896 46.0428 33.5062 45.4874 32.8708C44.932 32.2355 44.5026 31.4516 44.1991 30.5193C43.8955 29.587 43.7438 28.52 43.7438 27.3184C43.7438 26.1167 43.9149 25.0497 44.2572 24.1174C44.5994 23.1851 45.0612 22.4012 45.6424 21.7659C46.2236 21.1305 46.9017 20.6471 47.6766 20.3156C48.4516 19.9841 49.2782 19.8184 50.1564 19.8184C50.7118 19.8184 51.2123 19.8598 51.6579 19.9427C52.1035 20.0256 52.491 20.1222 52.8203 20.2327C53.1497 20.3432 53.4177 20.4537 53.6243 20.5642C53.831 20.6747 53.973 20.7576 54.0505 20.8128L53.5081 22.4703C53.3918 22.3874 53.2239 22.2976 53.0044 22.201C52.7848 22.1043 52.5362 22.0076 52.2585 21.9109C51.9808 21.8142 51.6773 21.7348 51.3479 21.6726C51.0186 21.6105 50.686 21.5794 50.3502 21.5794C49.6398 21.5794 49.0005 21.7107 48.4322 21.9731C47.8639 22.2355 47.3796 22.6153 46.9792 23.1126C46.5788 23.6098 46.272 24.2141 46.0589 24.9254C45.8458 25.6368 45.7393 26.4344 45.7393 27.3184C45.7393 28.1747 45.8329 28.9551 46.0202 29.6595C46.2075 30.3639 46.4884 30.9682 46.8629 31.4724C47.2375 31.9765 47.7057 32.3667 48.2675 32.643C48.8293 32.9192 49.4848 33.0573 50.2339 33.0573C51.0993 33.0573 51.8161 32.9606 52.3844 32.7672C52.9527 32.5739 53.3789 32.4012 53.6631 32.2493L54.1474 33.9067C54.057 33.9758 53.8956 34.0621 53.6631 34.1657C53.4306 34.2693 53.14 34.3694 52.7913 34.4661C52.4425 34.5628 52.0357 34.6457 51.5707 34.7148C51.1058 34.7838 50.602 34.8184 50.0596 34.8184Z" fill="white"/>
<path fill-rule="evenodd" clip-rule="evenodd" d="M7.84136 15.6972H7.84132C7.09468 15.6972 6.4894 15.0934 6.4894 14.3486C6.4894 14.2701 6.49613 14.1931 6.50906 14.1182C6.61865 13.4832 7.17343 13 7.84132 13H7.84136H7.8414C8.58805 13 9.19333 13.6038 9.19333 14.3486C9.19333 14.4621 9.17929 14.5723 9.15282 14.6776C9.00563 15.2634 8.47431 15.6972 7.84142 15.6972H7.84136ZM18.9273 14.888C18.9273 14.1432 19.5326 13.5394 20.2793 13.5394C21.0259 13.5394 21.6312 14.1432 21.6312 14.888C21.6312 15.6329 21.0259 16.2367 20.2793 16.2367C19.5326 16.2367 18.9273 15.6329 18.9273 14.888ZM23.9746 15.6074C23.9746 15.5872 23.9751 15.5671 23.9761 15.5472C24.0075 14.9297 24.5193 14.4385 25.1463 14.4385C25.7934 14.4385 26.318 14.9618 26.318 15.6074C26.318 15.9301 26.1868 16.2223 25.9748 16.4338C25.7628 16.6454 25.4698 16.7762 25.1463 16.7762C24.4991 16.7762 23.9746 16.2529 23.9746 15.6074ZM15.7728 17.1358H15.7727C15.0025 17.1358 14.3651 16.5689 14.2568 15.8306C14.2461 15.7578 14.2405 15.6832 14.2405 15.6074C14.2405 14.7632 14.9265 14.0789 15.7727 14.0789H15.7728H15.7728C16.4703 14.0789 17.0589 14.5438 17.2443 15.1799C17.2838 15.3155 17.305 15.459 17.305 15.6074C17.305 16.4515 16.619 17.1358 15.7728 17.1358H15.7728ZM29.112 19.2936H29.112C28.6286 19.2936 28.226 18.9485 28.1383 18.4919C28.1267 18.4313 28.1206 18.3687 28.1206 18.3047C28.1206 17.7584 28.5645 17.3156 29.112 17.3156H29.112H29.1121C29.5911 17.3156 29.9908 17.6546 30.0833 18.1054C30.0965 18.1697 30.1034 18.2364 30.1034 18.3047C30.1034 18.8509 29.6596 19.2936 29.1121 19.2936L29.112 19.2936ZM4.86857 19.471C4.06361 19.4252 3.42492 18.7595 3.42492 17.945C3.42492 17.1009 4.11101 16.4166 4.9572 16.4166C5.8034 16.4166 6.48939 17.1009 6.48939 17.945C6.48939 18.7892 5.8034 19.4735 4.9572 19.4735C4.92746 19.4735 4.8979 19.4726 4.86857 19.4709V19.471ZM11.2663 19.6533H11.2662C10.3205 19.6533 9.55378 18.8885 9.55378 17.945C9.55378 17.8381 9.56363 17.7336 9.58245 17.6321C9.7298 16.8381 10.4276 16.2367 11.2663 16.2367H11.2663H11.2663C12.2121 16.2367 12.9788 17.0016 12.9788 17.945C12.9788 18.8885 12.2121 19.6533 11.2663 19.6533L11.2663 19.6533ZM31.185 22.0809C31.185 21.634 31.5482 21.2717 31.9962 21.2717C32.4442 21.2717 32.8074 21.634 32.8074 22.0809C32.8074 22.5278 32.4442 22.89 31.9962 22.89C31.5482 22.89 31.185 22.5278 31.185 22.0809ZM14.4419 23.7877C13.6278 23.7517 12.9788 23.0818 12.9788 22.2607C12.9788 21.4165 13.6648 20.7322 14.511 20.7322C15.3572 20.7322 16.0432 21.4165 16.0432 22.2607C16.0432 23.0818 15.3942 23.7517 14.58 23.7877C14.5571 23.7887 14.5341 23.7892 14.511 23.7892C14.4878 23.7892 14.4648 23.7887 14.4419 23.7877ZM2.97433 23.969H2.97429C2.02852 23.969 1.26182 23.2041 1.26182 22.2607C1.26182 21.3172 2.02852 20.5524 2.97429 20.5524H2.97433H2.97437C3.92014 20.5524 4.68683 21.3172 4.68683 22.2607C4.68683 23.2041 3.92014 23.969 2.97437 23.969H2.97433ZM6.84994 22.0809C6.84994 21.0382 7.69726 20.1928 8.74258 20.1928C9.78792 20.1928 10.6353 21.0382 10.6353 22.0809C10.6353 23.1237 9.78791 23.969 8.74258 23.969C7.69726 23.969 6.84994 23.1237 6.84994 22.0809ZM16.2234 26.936C16.2234 26.0919 16.9094 25.4075 17.7556 25.4075C18.6018 25.4075 19.2878 26.0919 19.2878 26.936C19.2878 27.7802 18.6018 28.4645 17.7556 28.4645C16.9094 28.4645 16.2234 27.7802 16.2234 26.936ZM11.1774 27.002C11.1766 26.9801 11.1761 26.9581 11.1761 26.936C11.1761 25.9925 11.9428 25.2277 12.8886 25.2277C13.8344 25.2277 14.6011 25.9925 14.6011 26.936C14.6011 26.9581 14.6006 26.9801 14.5998 27.002C14.565 27.9149 13.8122 28.6443 12.8886 28.6443C11.965 28.6443 11.2122 27.9149 11.1774 27.002ZM0 27.1158C0 26.073 0.847414 25.2277 1.89274 25.2277C2.93806 25.2277 3.78547 26.073 3.78547 27.1158C3.78547 28.1586 2.93806 29.0039 1.89274 29.0039C0.847414 29.0039 0 28.1586 0 27.1158ZM5.40785 27.1158C5.40785 25.9738 6.33597 25.0479 7.48087 25.0479C8.62566 25.0479 9.55378 25.9738 9.55378 27.1158C9.55378 28.2579 8.62566 29.1837 7.48087 29.1837C6.33597 29.1837 5.40785 28.2579 5.40785 27.1158ZM14.0825 33.0792C13.4448 32.8943 12.9788 32.3071 12.9788 31.6114V31.6113V31.6113C12.9788 30.843 13.5471 30.2071 14.2872 30.099C14.3602 30.0884 14.435 30.0828 14.511 30.0828C14.587 30.0828 14.6617 30.0884 14.7348 30.099C15.4749 30.2071 16.0432 30.843 16.0432 31.6113V31.6113V31.6114C16.0432 32.3071 15.5772 32.8943 14.9395 33.0792C14.8035 33.1187 14.6597 33.1398 14.511 33.1398C14.3622 33.1398 14.2184 33.1187 14.0825 33.0792ZM2.97433 33.6792H2.97429C2.02852 33.6792 1.26182 32.9144 1.26182 31.9709C1.26182 31.0275 2.02852 30.2627 2.97429 30.2627H2.97433H2.97437C3.92014 30.2627 4.68683 31.0275 4.68683 31.9709C4.68683 32.9144 3.92014 33.6792 2.97437 33.6792H2.97433ZM31.185 33.0499C31.185 32.603 31.5482 32.2407 31.9962 32.2407C32.4442 32.2407 32.8074 32.603 32.8074 33.0499C32.8074 33.4968 32.4442 33.8591 31.9962 33.8591C31.5482 33.8591 31.185 33.4968 31.185 33.0499ZM6.84994 32.1508C6.84994 31.108 7.69726 30.2627 8.74258 30.2627C9.78792 30.2627 10.6353 31.108 10.6353 32.1508C10.6353 33.1935 9.78791 34.0389 8.74258 34.0389C7.69726 34.0389 6.84994 33.1935 6.84994 32.1508ZM29.112 37.8151H29.112C28.6286 37.8151 28.226 37.4701 28.1383 37.0133C28.1267 36.9527 28.1206 36.8901 28.1206 36.8261C28.1206 36.2799 28.5645 35.8372 29.112 35.8372H29.112H29.1121C29.5911 35.8372 29.9908 36.1762 30.0833 36.6268C30.0965 36.6912 30.1034 36.7578 30.1034 36.8261C30.1034 37.3724 29.6596 37.8152 29.1121 37.8152L29.112 37.8151ZM4.86857 37.9925C4.06361 37.9467 3.42492 37.281 3.42492 36.4665C3.42492 35.6223 4.11101 34.938 4.9572 34.938C5.8034 34.938 6.48939 35.6223 6.48939 36.4665C6.48939 37.3107 5.8034 37.995 4.9572 37.995C4.92746 37.995 4.8979 37.9941 4.86857 37.9924V37.9925ZM11.2663 38.5344H11.2662C10.3205 38.5344 9.55378 37.7696 9.55378 36.8261C9.55378 36.7192 9.56363 36.6146 9.58245 36.5132C9.7298 35.7192 10.4276 35.1178 11.2663 35.1178H11.2663H11.2663C12.2121 35.1178 12.9788 35.8826 12.9788 36.8261C12.9788 37.7696 12.2121 38.5344 11.2663 38.5344H11.2663ZM23.9746 39.3436C23.9746 39.3234 23.9751 39.3034 23.9761 39.2834C24.0075 38.6659 24.5193 38.1748 25.1463 38.1748C25.7934 38.1748 26.318 38.6981 26.318 39.3436C26.318 39.9741 25.8177 40.4879 25.1916 40.5116C25.1766 40.5122 25.1615 40.5125 25.1463 40.5125C24.4991 40.5125 23.9746 39.9892 23.9746 39.3436V39.3436ZM15.7728 41.0519H15.7727C15.0025 41.0519 14.3651 40.485 14.2568 39.7467C14.2461 39.6738 14.2405 39.5993 14.2405 39.5234C14.2405 38.6793 14.9265 37.995 15.7727 37.995H15.7728H15.7728C16.4703 37.995 17.0589 38.4599 17.2443 39.0959C17.2838 39.2316 17.305 39.375 17.305 39.5234C17.305 40.3675 16.619 41.0519 15.7728 41.0519L15.7728 41.0519ZM18.9273 40.2427C18.9273 39.4979 19.5326 38.8941 20.2793 38.8941C21.0259 38.8941 21.6312 39.4979 21.6312 40.2427C21.6312 40.9876 21.0259 41.5914 20.2793 41.5914C19.5326 41.5914 18.9273 40.9876 18.9273 40.2427ZM7.84136 41.951H7.84132C7.09468 41.951 6.4894 41.3472 6.4894 40.6023C6.4894 40.5238 6.49613 40.4468 6.50906 40.3719C6.61865 39.7369 7.17343 39.2537 7.84132 39.2537H7.84136H7.8414C8.58805 39.2537 9.19333 39.8575 9.19333 40.6023C9.19333 40.7158 9.17929 40.826 9.15282 40.9313C9.00563 41.5171 8.47431 41.951 7.84142 41.951H7.84136Z" fill="url(#paint0_linear_1159_1285)"/>
<defs>
<linearGradient id="paint0_linear_1159_1285" x1="15.0824" y1="56.4255" x2="44.1111" y2="26.1806" gradientUnits="userSpaceOnUse">
<stop stop-color="#964BFF"/>
<stop offset="0.37" stop-color="#A695FF"/>
<stop offset="0.65" stop-color="#3CE9FF"/>
<stop offset="0.86" stop-color="#CAFF2C"/>
<stop offset="1" stop-color="#FFFF21"/>
</linearGradient>
</defs>
</svg>

<svg xmlns="http://www.w3.org/2000/svg" width="166" height="56" fill="none" xmlns:v="https://vecta.io/nano"><g fill-rule="evenodd"><path d="M140.321 34.508V20.15h8.195v1.72H142.2v4.268h5.619v1.678H142.2v4.972h6.801v1.72h-8.68zm-10.849-1.989l-.513-1.264-.688-1.657-.785-1.834-.784-1.782-.688-1.502-.514-1.015-.348 5.293-.233 5.749h-1.84l.174-3.76.223-3.729.271-3.574.32-3.294h1.647l1.123 2.155 1.201 2.6 1.163 2.714 1.027 2.476 1.026-2.476 1.163-2.714 1.201-2.6 1.124-2.155h1.646c.44 4.627.769 9.413.988 14.358h-1.84l-.233-5.749a134.68 134.68 0 0 0-.348-5.293c-.129.235-.301.573-.514 1.015a46.05 46.05 0 0 0-.687 1.502l-.785 1.782-.785 1.834-.687 1.657-.514 1.264h-1.511zm-11.663-3.336l-1.23-3.491a64.66 64.66 0 0 0-1.269-3.242 53.48 53.48 0 0 0-1.288 3.242l-1.211 3.491h4.998zm1.763 5.325l-.62-1.834-.6-1.834h-6.084l-1.22 3.667h-1.957l1.453-4.216 1.327-3.678 1.288-3.325a90.09 90.09 0 0 1 1.337-3.139h1.724c.465 1.036.911 2.082 1.337 3.139l1.289 3.325 1.327 3.678 1.453 4.216h-2.054zm-17.979-12.742c-.8 0-1.414.021-1.84.062v5.407h1.337c.645 0 1.227-.034 1.743-.104s.953-.2 1.308-.394a2.02 2.02 0 0 0 .823-.818c.194-.352.291-.818.291-1.398 0-.539-.097-.988-.291-1.347a2.23 2.23 0 0 0-.784-.849c-.33-.207-.717-.352-1.163-.435s-.92-.124-1.424-.124h0zm2.848 6.734a49.87 49.87 0 0 1 .785 1.088c.316.449.642.946.978 1.492s.669 1.115.998 1.709a17.98 17.98 0 0 1 .843 1.72h-2.054c-.258-.525-.539-1.057-.843-1.595a34.95 34.95 0 0 0-.92-1.544c-.31-.49-.617-.95-.92-1.378s-.578-.801-.823-1.119c-.168.014-.339.021-.514.021h-.533-1.685v5.615h-1.879V20.357c.53-.138 1.121-.231 1.773-.28a24.43 24.43 0 0 1 1.792-.072c1.886 0 3.323.38 4.311 1.139s1.482 1.892 1.482 3.398c0 .953-.236 1.768-.707 2.445s-1.166 1.181-2.083 1.513h0zM87.47 34.508V20.15h8.098v1.72h-6.219v4.33h5.522v1.699h-5.522v6.609H87.47zm-1.976-1.74v1.74h-8.079V20.15h1.879v12.617h6.2zm-10.055 0v1.74H67.36V20.15h1.879v12.617h6.2zm-19.141 1.74V20.15h8.195v1.72h-6.316v4.268h5.618v1.678h-5.618v4.972h6.8v1.72h-8.679zm-6.238.311c-.943 0-1.802-.166-2.577-.497a5.48 5.48 0 0 1-1.995-1.45c-.555-.635-.985-1.419-1.288-2.352s-.455-1.999-.455-3.201.171-2.269.513-3.201.804-1.716 1.385-2.352 1.259-1.119 2.034-1.45 1.602-.497 2.48-.497a8.25 8.25 0 0 1 1.502.124 8.68 8.68 0 0 1 1.162.29c.329.11.597.221.804.331s.349.193.426.249l-.542 1.658c-.116-.083-.284-.173-.504-.269s-.468-.193-.746-.29-.581-.176-.911-.238a5.37 5.37 0 0 0-.998-.093c-.71 0-1.35.131-1.918.394s-1.053.642-1.453 1.14-.707 1.101-.92 1.813-.32 1.509-.32 2.393c0 .856.094 1.637.281 2.341s.468 1.309.843 1.813.843.894 1.405 1.171 1.217.414 1.966.414c.865 0 1.582-.097 2.151-.29s.995-.366 1.279-.518l.484 1.657c-.09.069-.252.155-.484.259s-.523.204-.872.3a10.26 10.26 0 0 1-1.221.249c-.465.069-.969.104-1.511.104z" fill="#fff"/><path d="M7.841 15.697h0a1.35 1.35 0 0 1-1.352-1.349c0-.079.007-.155.02-.23A1.35 1.35 0 0 1 7.841 13h0 0a1.35 1.35 0 0 1 1.311 1.678 1.35 1.35 0 0 1-1.311 1.02h0zm11.086-.809a1.35 1.35 0 0 1 2.704 0 1.35 1.35 0 0 1-2.704 0zm5.047.719l.002-.06a1.17 1.17 0 0 1 1.17-1.109 1.17 1.17 0 0 1 1.172 1.169c0 .323-.131.615-.343.826a1.17 1.17 0 0 1-2-.826zm-8.202 1.528h0a1.53 1.53 0 0 1-1.516-1.305c-.011-.073-.016-.147-.016-.223a1.53 1.53 0 0 1 1.532-1.528h0 0c.698 0 1.286.465 1.471 1.101.04.136.061.279.061.428a1.53 1.53 0 0 1-1.532 1.528h0zm13.339 2.158h0a.99.99 0 0 1-.974-.802c-.012-.061-.018-.123-.018-.187a.99.99 0 0 1 .991-.989h0 0a.99.99 0 0 1 .991.989.99.99 0 0 1-.991.989h0zm-24.243.177a1.53 1.53 0 0 1-1.444-1.526 1.53 1.53 0 1 1 3.064 0 1.53 1.53 0 0 1-1.621 1.526h0zm6.398.182h0a1.71 1.71 0 0 1-1.712-1.708c0-.107.01-.211.029-.313a1.71 1.71 0 0 1 1.684-1.395h0 0a1.71 1.71 0 0 1 1.713 1.708 1.71 1.71 0 0 1-1.713 1.708h0zm19.919 2.428a.81.81 0 1 1 1.622 0 .81.81 0 1 1-1.622 0zm-16.743 1.707a1.53 1.53 0 0 1-1.463-1.527 1.53 1.53 0 1 1 3.064 0 1.53 1.53 0 0 1-1.463 1.527l-.069.002c-.023 0-.046-.001-.069-.002zm-11.468.181h0a1.71 1.71 0 0 1-1.712-1.708 1.71 1.71 0 0 1 1.712-1.708h0 0a1.71 1.71 0 0 1 1.712 1.708 1.71 1.71 0 0 1-1.712 1.708h0zm3.876-1.888a1.89 1.89 0 1 1 3.785 0 1.89 1.89 0 1 1-3.785 0zm9.373 4.855a1.53 1.53 0 1 1 3.064 0 1.53 1.53 0 1 1-3.064 0zm-5.046.066l-.001-.066a1.71 1.71 0 1 1 3.425 0l-.001.066a1.71 1.71 0 0 1-1.711 1.642 1.71 1.71 0 0 1-1.711-1.642zM0 27.116a1.89 1.89 0 0 1 1.893-1.888 1.89 1.89 0 0 1 1.893 1.888 1.89 1.89 0 0 1-1.893 1.888A1.89 1.89 0 0 1 0 27.116zm5.408 0a2.07 2.07 0 1 1 4.146 0 2.07 2.07 0 1 1-4.146 0zm8.675 5.963a1.53 1.53 0 0 1-1.104-1.468h0 0a1.53 1.53 0 0 1 1.308-1.512 1.56 1.56 0 0 1 .448 0 1.53 1.53 0 0 1 1.308 1.512h0 0a1.53 1.53 0 0 1-1.104 1.468c-.136.039-.28.061-.429.061s-.293-.021-.428-.061zm-11.108.6h0a1.71 1.71 0 0 1-1.712-1.708 1.71 1.71 0 0 1 1.712-1.708h0 0a1.71 1.71 0 0 1 1.712 1.708 1.71 1.71 0 0 1-1.712 1.708h0zm28.211-.629a.81.81 0 1 1 1.622 0 .81.81 0 1 1-1.622 0zM6.85 32.151a1.89 1.89 0 1 1 3.785 0 1.89 1.89 0 1 1-3.785 0zm22.262 5.664h0a.99.99 0 0 1-.974-.802c-.012-.061-.018-.123-.018-.187a.99.99 0 0 1 .991-.989h0 0a.99.99 0 0 1 .991.989.99.99 0 0 1-.991.989h0zm-24.243.177a1.53 1.53 0 0 1-1.444-1.526 1.53 1.53 0 1 1 3.064 0 1.53 1.53 0 0 1-1.621 1.526h0zm6.398.542h0a1.71 1.71 0 0 1-1.712-1.708c0-.107.01-.211.029-.313a1.71 1.71 0 0 1 1.684-1.395h0 0a1.71 1.71 0 0 1 1.713 1.708 1.71 1.71 0 0 1-1.713 1.708h0zm12.708.809l.002-.06a1.17 1.17 0 0 1 1.17-1.109 1.17 1.17 0 0 1 1.172 1.169 1.17 1.17 0 0 1-1.126 1.168l-.045.001a1.17 1.17 0 0 1-1.172-1.169h0zm-8.202 1.708h0a1.53 1.53 0 0 1-1.516-1.305c-.011-.073-.016-.147-.016-.223a1.53 1.53 0 0 1 1.532-1.528h0 0c.698 0 1.286.465 1.471 1.101.04.136.061.279.061.428a1.53 1.53 0 0 1-1.532 1.529h0zm3.154-.809a1.35 1.35 0 0 1 2.704 0 1.35 1.35 0 0 1-2.704 0zM7.841 41.951h0a1.35 1.35 0 0 1-1.352-1.349c0-.078.007-.155.02-.23a1.35 1.35 0 0 1 1.332-1.118h0 0a1.35 1.35 0 0 1 1.311 1.678 1.35 1.35 0 0 1-1.311 1.02h0z" fill="url(#A)"/></g><defs><linearGradient id="A" x1="15.082" y1="56.426" x2="44.111" y2="26.181" gradientUnits="userSpaceOnUse"><stop stop-color="#964bff"/><stop offset=".37" stop-color="#a695ff"/><stop offset=".65" stop-color="#3ce9ff"/><stop offset=".86" stop-color="#caff2c"/><stop offset="1" stop-color="#ffff21"/></linearGradient></defs></svg>
